X: 6940
T: Cheshire Round
R: three-two
M: 3/2
K: Dmajor
|:f2 ef gf ed fg a2|b2e4 d2 c2 A2|f2 ef gf ed fg a2|A2 d4 A2 F2 D2:|
|:B2 AB =cB AG F2 D2|E2 e4 d2c2A2|B2 AB =cB AG F2 E2|D2d4 A2 F2 D2:|

